tools/download-figma-icons/icons/solid/battery-inactive.svg

<svg width="24" height="24" viewBox="0 0 24 24" fill="none" xmlns="http://www.w3.org/2000/svg">
<path fill-rule="evenodd" clip-rule="evenodd" d="M4.50114 16.2825L18.3739 2.4075C18.1406 2.3025 17.8864 2.25 17.6239 2.25H16.4989V1.125C16.4989 0.5025 15.9964 0 15.3746 0H8.62539C8.00364 0 7.50114 0.5025 7.50114 1.125V2.25H6.37614C5.34114 2.25 4.50114 3.09 4.50114 4.125V16.2825ZM19.4981 5.56499L21.5306 3.53249C21.8231 3.23999 21.8231 2.75999 21.5306 2.46749C21.2381 2.17499 20.7581 2.17499 20.4656 2.46749L2.46937 20.4675C2.17688 20.76 2.17688 21.24 2.46937 21.5325C2.61937 21.675 2.80688 21.75 3.00188 21.75C3.19688 21.75 3.38437 21.675 3.53437 21.5325L4.50112 20.565V22.125C4.50112 23.16 5.34113 24 6.37613 24H17.6239C18.6589 24 19.4981 23.16 19.4981 22.125V5.56499Z" fill="black"/>
</svg>

<svg xmlns="http://www.w3.org/2000/svg" width="24" height="24" fill="none" viewBox="0 0 24 24"><path fill="currentColor" fill-rule="evenodd" d="M4.501 16.282 18.374 2.408a1.8 1.8 0 0 0-.75-.158h-1.125V1.125C16.499.503 15.996 0 15.375 0h-6.75c-.621 0-1.124.502-1.124 1.125V2.25H6.376c-1.035 0-1.875.84-1.875 1.875zM19.498 5.565l2.033-2.033a.756.756 0 0 0 0-1.065.756.756 0 0 0-1.065 0l-17.997 18a.756.756 0 0 0 0 1.066c.15.142.338.217.533.217a.77.77 0 0 0 .532-.218l.967-.967v1.56c0 1.035.84 1.875 1.875 1.875h11.248c1.035 0 1.874-.84 1.874-1.875z" clip-rule="evenodd"/></svg>
